!!!OTL: KOMM WIR WOLLEN WANDERN
!!!ARE: Europa, Mitteleuropa, Deutschland, Sachsen, Halle
!!!SCT: E1901
!!!YEM: Copyright 1995, estate of Helmut Schaffrath.
**kern
*ICvox
*Ivox
*M2/4
*k[b-]
*F:
=1
{8cc
8cc
8cc
8cc
=2
8cc
8dd
4b-}
=3
{8a
8b-
8g
8e
=4
4f
8r}
{8cc
=5
8cc
8cc
8cc
8cc
=6
8cc
8dd
4b-}
=7
{8b-
8r
8b-
8r
=8
8b-
8cc
8a
8r}
=9
{8f
8a
8g
8e
=10
4f
4r}
==
!!!AGN: Kinder - Lied, Wander - Spiel
!!!ONB: ESAC (Essen Associative Code) Database: ERK3
!!!AMT: simple duple
!!!AIN: vox
!!!EED: Helmut Schaffrath
!!!EEV: 1.0
*-
